client/public/assets/waves2.svg

<svg width="900" height="600" xmlns="http://www.w3.org/2000/svg"><path d="m0 398 21.5 8.2c21.5 8.1 64.5 24.5 107.3 32.6 42.9 8.2 85.5 8.2 128.4 5 42.8-3.1 85.8-9.5 128.6-10.3 42.9-.8 85.5 3.8 128.4-7.7 42.8-11.5 85.8-39.1 128.6-38.6 42.9.5 85.5 29.1 128.4 29.1 42.8 0 85.8-28.6 107.3-43L900 359v242H0Z" fill="#7e61a8"/><path d="m0 442 21.5 4.7c21.5 4.6 64.5 14 107.3 11.1 42.9-2.8 85.5-17.8 128.4-22.3 42.8-4.5 85.8 1.5 128.6 3.2 42.9 1.6 85.5-1 128.4-5.4C557 429 600 423 642.8 424c42.9 1 85.5 9 128.4 18.7 42.8 9.6 85.8 21 107.3 26.6L900 475v126H0Z" fill="#6b4b98"/><path d="m0 490 21.5-3.8C43 482.3 86 474.7 128.8 476c42.9 1.3 85.5 11.7 128.4 15.7 42.8 4 85.8 1.6 128.6-6.5 42.9-8.2 85.5-22.2 128.4-21.2 42.8 1 85.8 17 128.6 18.2 42.9 1.1 85.5-12.5 128.4-13.9C814 467 857 478 878.5 483.5L900 489v112H0Z" fill="#573589"/><path d="m0 514 21.5-2.8C43 508.3 86 502.7 128.8 499c42.9-3.7 85.5-5.3 128.4-1.8 42.8 3.5 85.8 12.1 128.6 11.6 42.9-.5 85.5-10.1 128.4-15.1 42.8-5 85.8-5.4 128.6-2.4 42.9 3 85.5 9.4 128.4 15.9 42.8 6.5 85.8 13.1 107.3 16.5L900 527v74H0Z" fill="#4b2e77"/><path d="m0 535 21.5 1.7c21.5 1.6 64.5 5 107.3 3.3 42.9-1.7 85.5-8.3 128.4-4.7C300 539 343 553 385.8 560.2c42.9 7.1 85.5 7.5 128.4 4.8 42.8-2.7 85.8-8.3 128.6-12.5 42.9-4.2 85.5-6.8 128.4-6 42.8.8 85.8 5.2 107.3 7.3L900 556v45H0Z" fill="#3f2865"/></svg>

<svg id="visual" viewBox="0 0 900 600" width="900" height="600" xmlns="http://www.w3.org/2000/svg" xmlns:xlink="http://www.w3.org/1999/xlink" version="1.1"><path d="M0 398L21.5 406.2C43 414.3 86 430.7 128.8 438.8C171.7 447 214.3 447 257.2 443.8C300 440.7 343 434.3 385.8 433.5C428.7 432.7 471.3 437.3 514.2 425.8C557 414.3 600 386.7 642.8 387.2C685.7 387.7 728.3 416.3 771.2 416.3C814 416.3 857 387.7 878.5 373.3L900 359L900 601L878.5 601C857 601 814 601 771.2 601C728.3 601 685.7 601 642.8 601C600 601 557 601 514.2 601C471.3 601 428.7 601 385.8 601C343 601 300 601 257.2 601C214.3 601 171.7 601 128.8 601C86 601 43 601 21.5 601L0 601Z" fill="#7e61a8"></path><path d="M0 442L21.5 446.7C43 451.3 86 460.7 128.8 457.8C171.7 455 214.3 440 257.2 435.5C300 431 343 437 385.8 438.7C428.7 440.3 471.3 437.7 514.2 433.3C557 429 600 423 642.8 424C685.7 425 728.3 433 771.2 442.7C814 452.3 857 463.7 878.5 469.3L900 475L900 601L878.5 601C857 601 814 601 771.2 601C728.3 601 685.7 601 642.8 601C600 601 557 601 514.2 601C471.3 601 428.7 601 385.8 601C343 601 300 601 257.2 601C214.3 601 171.7 601 128.8 601C86 601 43 601 21.5 601L0 601Z" fill="#6b4b98"></path><path d="M0 490L21.5 486.2C43 482.3 86 474.7 128.8 476C171.7 477.3 214.3 487.7 257.2 491.7C300 495.7 343 493.3 385.8 485.2C428.7 477 471.3 463 514.2 464C557 465 600 481 642.8 482.2C685.7 483.3 728.3 469.7 771.2 468.3C814 467 857 478 878.5 483.5L900 489L900 601L878.5 601C857 601 814 601 771.2 601C728.3 601 685.7 601 642.8 601C600 601 557 601 514.2 601C471.3 601 428.7 601 385.8 601C343 601 300 601 257.2 601C214.3 601 171.7 601 128.8 601C86 601 43 601 21.5 601L0 601Z" fill="#573589"></path><path d="M0 514L21.5 511.2C43 508.3 86 502.7 128.8 499C171.7 495.3 214.3 493.7 257.2 497.2C300 500.7 343 509.3 385.8 508.8C428.7 508.3 471.3 498.7 514.2 493.7C557 488.7 600 488.3 642.8 491.3C685.7 494.3 728.3 500.7 771.2 507.2C814 513.7 857 520.3 878.5 523.7L900 527L900 601L878.5 601C857 601 814 601 771.2 601C728.3 601 685.7 601 642.8 601C600 601 557 601 514.2 601C471.3 601 428.7 601 385.8 601C343 601 300 601 257.2 601C214.3 601 171.7 601 128.8 601C86 601 43 601 21.5 601L0 601Z" fill="#4b2e77"></path><path d="M0 535L21.5 536.7C43 538.3 86 541.7 128.8 540C171.7 538.3 214.3 531.7 257.2 535.3C300 539 343 553 385.8 560.2C428.7 567.3 471.3 567.7 514.2 565C557 562.3 600 556.7 642.8 552.5C685.7 548.3 728.3 545.7 771.2 546.5C814 547.3 857 551.7 878.5 553.8L900 556L900 601L878.5 601C857 601 814 601 771.2 601C728.3 601 685.7 601 642.8 601C600 601 557 601 514.2 601C471.3 601 428.7 601 385.8 601C343 601 300 601 257.2 601C214.3 601 171.7 601 128.8 601C86 601 43 601 21.5 601L0 601Z" fill="#3f2865"></path></svg>
